X: 09030
T: DEBBIE'S HORNPIPE
C: Bob McQuillen 26 Mar 92
B: Bob's Note Book 9 #30
R: hornpipe, reel
Z: 2019 John Chambers <jc:trillian.mit.edu>
M: C
L: 1/8
K: D
dB \
| A2FA BAFA | dfed B2dB | A2FA BAFA | defd e2fe |
| dAFA BAFA | defg a2ba | gfed ceag | f2d2 d2 :|
|: fg \
| a2fa bafd | fafd A2fg | a2fa bafd | Adfd e2de |
| f2dB ABde | fafd A2dB | Adfa gecd | e2d2 d2 :|
%%begintext align
%% Debbie Cray calls
%% dances down Boston way, and I'm always glad
%% when she's on the scene. I will neer forget
%% the cute little bouquet of flowers she set on the
%% piano one night, at a time when it was deeply
%% appreciated. Than you so much, Debbie.
%%endtext

%%sep 1 1 500

%%sep 1 1 500

